icon-themes/breeze_svg/sd/res/pageobjs.svg

<svg viewBox="0 0 24 24" xmlns="http://www.w3.org/2000/svg"><path d="m5 4v16h1 12 1v-10.5-1.5l-4-4h-1-8zm1 1h8v3 1h4v10h-12z" fill="#4d4d4d"/><path d="m9 12v3 2h7v-5h-1.75z" fill="#b3b3b3"/><path d="m8 7v8h4v-8z" fill="#1d99f3"/></svg>

<svg xmlns="http://www.w3.org/2000/svg" viewBox="0 0 24 24">
 <path 
     style="fill:#4d4d4d" 
     d="M 5 4 L 5 20 L 5 20 L 6 20 L 18 20 L 19 20 L 19 9.5 L 19 8 L 19 8 L 15 4 L 15 4 L 15 4 L 14 4 L 6 4 L 5 4 z M 6 5 L 14 5 L 14 8 L 14 9 L 18 9 L 18 19 L 6 19 L 6 5 z "
     />
 <path 
     style="fill:#b3b3b3" 
     d="M 9 12 L 9 15 L 9 17 L 16 17 L 16 12 L 14.25 12 L 9 12 z "
     />
 <path 
     style="fill:#1d99f3" 
     d="M 8 7 L 8 15 L 12 15 L 12 7 L 8 7 z "
     />
</svg>
